X:1
T:Fisher Island, CMD
T:Fisher Island, CMD
T:W. H. Burgett, 1880
T:Public Domain Courtesy of the Cyber Hymnal™
C:W. H. Burgett, 1880
Z:Public Domain
Z:Courtesy of the Cyber Hymnal™
%%score ( 1 2 ) ( 3 4 )
L:1/8
Q:1/4=103
M:6/8
K:G
V:1 treble 
V:2 treble 
V:3 bass 
V:4 bass 
V:1
 D | [DG]2 [DG] [DB]2 [B,G] | (AB)[Fc] [GB]2 [DB] | [EG]2 [EG] [FA]2 [GB] | [FA]3- [FA]2 G | %5
 [GB]2 [GB] [Gd]2 [GB] | [GB]2 [FA] [EG]2 E | [B,D]2 [B,D] [DB]2 [CA] | [B,G]3- [B,G]2 D | %9
 [DA]2 [DA] (AG)[DF] | [DG]2 [FA] [GB]2 [GB] | [Gd]2 [Gd] [GB]2 G | [FA]3- [FA]2 D | %13
 [DG]2 [GB] [Gd]2 [GB] | [GB]2 [FA] [EG]2 E | [B,D]2 [B,D] [DB]2 [CA] | [B,G]3- [B,G]2 |] %17
V:2
 D | x6 | B,2 x4 | x6 | x5 G | x6 | x5 E | x6 | x5 D | x3 D2 x | x6 | x5 G | x5 D | x6 | x5 E | %15
 x6 | x5 |] %17
V:3
 G, | [G,B,]2 [G,B,] G,2 G, | (F,G,)[D,A,] G,2 G, | [E,B,]2 [E,B,] [D,D]2 [D,D] | %4
 [D,D]3- [D,D]2 [G,B,] | [G,D]2 [G,D] [G,B,]2 [G,D] | [G,D]2 [D,C] (B,G,)[C,G,] | %7
 [D,G,]2 [D,G,] [D,G,]2 [D,F,] | [G,,G,]3- [G,,G,]2 [G,B,] | [D,C]2 [D,C] (CB,)[D,A,] | %10
 [G,B,]2 G, G,2 G, | [G,B,]2 [G,B,] [G,D]2 [B,,D] | [D,D]3- [D,D]2 [G,B,] | [G,B,]2 G, G,2 [G,D] | %14
 [G,D]2 [D,C] (B,G,)[C,G,] | [D,G,]2 [D,G,] [D,G,]2 [D,F,] | [G,,G,]3- [G,,G,]2 |] %17
V:4
 G, | x3 G,2 G, | D,2 G,2 G, x | x6 | x6 | x6 | x3 E,2 x | x6 | x6 | x3 D,2 x | x2 G, G,2 G, | x6 | %12
 x6 | x2 G, G,2 x | x3 E,2 x | x6 | x5 |] %17

